app/images/participant-modal/star.svg

<svg width="69" height="75" viewBox="0 0 69 75" fill="none" xmlns="http://www.w3.org/2000/svg">
<path d="M34.2855 59.4107C50.6914 59.4107 63.9909 46.1112 63.9909 29.7053C63.9909 13.2995 50.6914 0 34.2855 0C17.8797 0 4.5802 13.2995 4.5802 29.7053C4.5802 46.1112 17.8797 59.4107 34.2855 59.4107Z" fill="#DB4356"/>
<path d="M10.2209 47.0837L0 64.8009L11.9293 64.1676L17.349 74.8156L26.804 58.4239C20.0294 56.6713 14.212 52.5918 10.2209 47.0837Z" fill="#9A1E2D"/>
<path d="M58.4092 46.9954C54.4475 52.5182 48.6302 56.6124 41.8702 58.3944L51.3547 74.8156L56.7745 64.1676L68.7037 64.8009L58.4092 46.9954Z" fill="#9A1E2D"/>
<path d="M34.2856 51.237C46.1772 51.237 55.8172 41.597 55.8172 29.7054C55.8172 17.8138 46.1772 8.17383 34.2856 8.17383C22.3941 8.17383 12.754 17.8138 12.754 29.7054C12.754 41.597 22.3941 51.237 34.2856 51.237Z" fill="white"/>
<path d="M49.0425 27.3784C49.7053 26.7304 49.3371 25.5964 48.424 25.4639L39.9262 24.2268C39.558 24.1678 39.2488 23.9469 39.0867 23.6082L35.2871 15.9057C34.8747 15.0663 33.6818 15.0663 33.2694 15.9057L29.4844 23.6082C29.3224 23.9322 28.9984 24.1678 28.645 24.2268L20.1472 25.4639C19.2341 25.5964 18.8659 26.7304 19.5286 27.3784L25.67 33.3725C25.9351 33.6376 26.0529 34.0058 25.994 34.3593L24.5507 42.8128C24.3887 43.726 25.3607 44.4329 26.1855 43.991L33.7849 39.9999C34.1089 39.8232 34.5065 39.8232 34.8305 39.9999L42.4299 43.991C43.2546 44.4181 44.2119 43.726 44.0646 42.8128L42.6066 34.3593C42.5477 33.9911 42.6655 33.6229 42.9306 33.3725L49.0425 27.3784Z" fill="#FFB800"/>
</svg>

<svg width="69" height="75" fill="none" xmlns="http://www.w3.org/2000/svg"><path d="M34.285 59.41c16.406 0 29.706-13.299 29.706-29.705C63.99 13.3 50.69 0 34.285 0 17.88 0 4.58 13.3 4.58 29.705c0 16.406 13.3 29.706 29.706 29.706z" fill="#DB4356"/><path d="M10.22 47.084L0 64.8l11.93-.633 5.419 10.648 9.455-16.392c-6.775-1.753-12.592-5.832-16.583-11.34zM58.41 46.995a29.685 29.685 0 01-16.54 11.4l9.485 16.42 5.42-10.647 11.929.633-10.295-17.806z" fill="#9A1E2D"/><path d="M34.286 51.237c11.891 0 21.531-9.64 21.531-21.532 0-11.891-9.64-21.531-21.531-21.531-11.892 0-21.532 9.64-21.532 21.531 0 11.892 9.64 21.532 21.532 21.532z" fill="#fff"/><path d="M49.042 27.378c.663-.648.295-1.782-.618-1.914l-8.498-1.237a1.108 1.108 0 01-.84-.619l-3.799-7.702a1.123 1.123 0 00-2.018 0l-3.785 7.702a1.17 1.17 0 01-.839.619l-8.498 1.237c-.913.132-1.281 1.266-.618 1.914l6.141 5.995c.265.265.383.633.324.986l-1.443 8.454c-.162.913.81 1.62 1.635 1.178L33.785 40a1.097 1.097 0 011.046 0l7.599 3.991c.825.427 1.782-.265 1.635-1.178l-1.458-8.454a1.108 1.108 0 01.324-.986l6.111-5.995z" fill="#FFB800"/></svg>
